icons/desktop/20/help-20.svg

<svg width="20" height="20" viewBox="0 0 20 20" fill="none" xmlns="http://www.w3.org/2000/svg">
<path d="M10.126 13.75C10.6783 13.75 11.126 14.1977 11.126 14.75C11.126 15.3023 10.6783 15.75 10.126 15.75C9.57369 15.75 9.12598 15.3023 9.12598 14.75C9.12598 14.1977 9.57369 13.75 10.126 13.75Z" fill="black"/>
<path d="M10.1221 4.7998C11.8601 4.79982 13.2754 6.21514 13.2754 7.95312C13.2753 9.17103 12.5619 10.2916 11.458 10.8076C11.174 10.9416 10.9981 11.192 10.999 11.4609V11.79C11 12.273 10.609 12.665 10.126 12.666L10.125 12.668C9.64202 12.6679 9.25 12.275 9.25 11.792V11.4639C9.24805 10.5069 9.80988 9.64859 10.7158 9.22461C11.2078 8.99462 11.5254 8.49606 11.5254 7.9541C11.5254 7.18111 10.8961 6.5508 10.1221 6.55078C9.43407 6.55078 8.83835 7.06226 8.73535 7.73926C8.66227 8.21709 8.21414 8.54555 7.73828 8.47168C7.26028 8.39868 6.93188 7.95161 7.00488 7.47461C7.23704 5.95079 8.57719 4.7998 10.1221 4.7998Z" fill="black"/>
<path fill-rule="evenodd" clip-rule="evenodd" d="M10 0C15.5228 0 20 4.47715 20 10C20 15.5228 15.5228 20 10 20C4.47715 20 0 15.5228 0 10C0 4.47715 4.47715 0 10 0ZM10 1.75C5.44365 1.75 1.75 5.44365 1.75 10C1.75 14.5563 5.44365 18.25 10 18.25C14.5563 18.25 18.25 14.5563 18.25 10C18.25 5.44365 14.5563 1.75 10 1.75Z" fill="black"/>
</svg>

<!-- This Source Code Form is subject to the terms of the Mozilla Public
   - License, v. 2.0. If a copy of the MPL was not distributed with this
   - file, You can obtain one at http://mozilla.org/MPL/2.0/. -->
<svg xmlns="http://www.w3.org/2000/svg" width="20" height="20" fill="context-fill" fill-opacity="context-fill-opacity" viewBox="0 0 20 20">
    <path d="M10.126 13.75a1 1 0 1 1 0 2 1 1 0 0 1 0-2M10.122 4.8a3.16 3.16 0 0 1 3.153 3.153 3.16 3.16 0 0 1-1.817 2.855c-.284.134-.46.384-.459.653v.329a.874.874 0 0 1-.873.876l-.001.002a.876.876 0 0 1-.875-.876v-.328c-.002-.957.56-1.815 1.466-2.24.492-.23.81-.728.81-1.27 0-.773-.63-1.403-1.404-1.403a1.41 1.41 0 0 0-1.387 1.188.875.875 0 0 1-1.73-.264A3.17 3.17 0 0 1 10.122 4.8" />
    <path fill-rule="evenodd" d="M10 0c5.523 0 10 4.477 10 10s-4.477 10-10 10S0 15.523 0 10 4.477 0 10 0m0 1.75a8.25 8.25 0 1 0 0 16.5 8.25 8.25 0 0 0 0-16.5" clip-rule="evenodd" />
</svg>
